X: 1310
T: The Reel of the 51st Division
P: The Drunken Piper/Highland Rory
C:Alex. McLeod, c. 1880
R:Reel (8x32)
B:RSCDS 13-10
Z:Anselm Lingnau <anselm@strathspey.org>
M:2/4
L:1/16
K:ADor
|:e2|"Am"AAAB e4|edBd e2g2|"G"GGGB d4|dBGB d2e2|\
  "Am"AAAB e4|edBd e2a2|
                        "Em"g2eg efed|"Am"B2A2 A2:|\
e2|"Am"a4 e2a2|edef g2a2|"G"GGGB d3e|dBGB d2e2|
   "Am"a4 e2a2|edef g2a2|"Em"g2eg efed|"Am"B2A2 A2e2|\
   "Am"a4 e2a2|edef g2a2|
                         "G"GGGB d3e|dBGB d2e2|\
   "Am"AAAB e4|edBd e2a2|"Em"g2eg efed|"Am"B2A2 A2|]
%%center Book13/1310-Reel_of_the_51st_Division-AL.abc

%%sep 1 1 500
%%sep 1 1 500

